X: 17
T:Brighton Camp
M:4/4
L:1/8
K:G
D2| G2 Bc d2 ef| g2 dc BA G2| Bc d2 e2 f2 | g4 f2 ag| e2 dc (3BcB A2|\
B2 G2 E3 G| FGAF D2 (3DEF| G4 G2::\
Bc| d2 B2 dcAB| c2 E2 GA D2| G3 F GABc| dedc B2 gf| e2 dc (3BcB A2| B2 G
